/* XPM */
static char * backrooms_north_xpm[] = {
"64 64 36 1",
" 	c #867E3B",
".	c #857C3A",
"+	c #847B3A",
"@	c #7F7738",
"#	c #807838",
"$	c #837B39",
"%	c #867D3A",
"&	c #847C3A",
"*	c #8D843D",
"=	c #91883E",
"-	c #877E3B",
";	c #827A39",
">	c #817939",
",	c #817839",
"'	c #89803B",
")	c #91873E",
"!	c #8C833C",
"~	c #877F3B",
"{	c #857D3A",
"]	c #8A813C",
"^	c #89813C",
"/	c #8E853D",
"(	c #887F3B",
"_	c #8B823C",
":	c #8F863E",
"<	c #8D833D",
"[	c #90863E",
"}	c #8C833D",
"|	c #88803B",
"1	c #8E843D",
"2	c #837A39",
"3	c #867E3A",
"4	c #90873E",
"5	c #8F853D",
"6	c #8A823C",
"7	c #8F863D",
" .+@@#$%&*========-@@@@@@@@@#;>,')=========!~>@@@@@@@@@@@@#>@#;%",
"&;>@@@#+#;{]^/===!>@@@@@@@@@,~(._==:=======!(+@@@@@@@@@@@#$($@#;",
"]{>#>#;>@@#+;$^**.@@@@@@@@@@,(!'<==/=======^+>@@@@@@@@@@@#~[}$#.",
"==}.%;>@@@@@@#;;>@@@@@@@@@@@#$|(![//=======_>@@@@@@@@@@@@#(==!#&",
"===](+#>@@@@@@@@@@@@@@@@@@@#>#{(<_(!=======!>@@@@@@@@@@@@#~===%-",
"===*'(+>@@@@@@@@@@@@@@@@@@@#>#;& (%^*=====[_>@@@@@@@@@@@@#%^1)!_",
"===_(!|@@@@@@@@@@@@@@@@@#+>@@@@#;2%^*)===:_]%>@@@@@@@@@@@#{ 3_!!",
"==)++_'>@@@@@@@@@@@@@@@@#+>@@@@#+#3!======!_]{@@@@@@@@@@@#{-~'_/",
"==)&.--%>@@@@@@@@@@@@@@@@@@@@@@#># /=======44/{>@@@@@@@@@#;$]/:=",
"===/!'']+@@@@@@@@@@@@@@@@@@@@@@@#;+!==========<+@@@@@@@@@@@>_===",
"=====/!]+@@@@@@@@@@@@@@@@@@@@@#;2&$]===[5=====4-@@@@@@#;;;;._===",
"=====1](+@@@@@@@@@@@@@@@@@@@#;2{- {(*:==[*:====_;>@@@@,(___!^1==",
"=====!']-@@@@@@@@@@@@@@@@@@#$'|-(]~;&3[==[5)=[1';>@@@@>_=4[*-~'*",
"=====)*4/%$@@@@@@@@@@@@@@@@#&*[!_==|;+!===4[1_]{@@@@@@>^!(~{;;;+",
"======:===*>@@@@@@@@@@@@@@@@#|======!'!===4:]'|%;>@@@@#+>@@@@@@#",
"=====5]4===+@@@@@@@@@@@@@@@@@;[============)]-~'|{@@@@@@@@@@@@@@",
"====_+&:===-@@@@@@@@@@@@@@@@@>*=============4(%^!'>@@@@@@@@@@@@@",
"=4']{#&)===)$@@@@@@@@@@@@@@@#$_=========[[===5''_]+@@@@@@@@@@@@@",
":_{ +# /====]@@@@@@@@@@@@@@@#3<=====5'^!_<====!|- +@@@@@@@@@@@@@",
"^_;;>#$(*:==*>@@@@@@@@@@@@#;2 1====_ &;.-'====(+2.&>@@@@@@@@@@@@",
"'|@@@#23]_===~>@@@@@@@@@@@#;2%'<==4 .+#$-|4==={@#2&>@@@@@@@@@@@@",
".{@@@#2 *[===_+@@@@@@@@@@@@@#;2~4[*--{#$|~_===_$@#+@@@@@@@@@@@@@",
"#>@@@@#-4===='>@@@@@@@@@@@@#;;2{3 |~'-@#+;&:===_&&+#33@@@@@@@@@@",
"+>@@@@# /====^+;+>@@@@@@#>@#.&2+@#;;&$@@@@;*====/1]()/@@@@@@@@@@",
"]{@@@@#$(/===[!']+@@@@@#-^$#;>#>@@@@@@@@@@>_4======44*;>@@@@@@@#",
"]~>@@#>#$]4====[<+@@@@#&1=_>@@@@@@@@@@@@#;.'}======*'| +@@@@@@@,",
"_%>@@#;;{_/======{@@@@#%][<+@@@@@@@@@@@@#-/1_[===!] {-%>@@@@@@#+",
"4{@@@#23!========_&+;& ''({>@@@@@@@@@@@@#~==!''!^&{ %(+@@#;&+;{_",
"='>#>#{|)========[*/*4=/_>@@@@@@@@@@@@@@#+6](+#&>#$-(_+#;$(*1__5",
"[_+#;$(!========[:=====4-@@@@@@@@@@@@@@@@#;2&>#>@@#{|<&$~^1==1__",
"__%>#{(1========!!======+@@@@@@@@@@@@@@#;&3%>#>#;;.''].{(_5:]%&.",
"']|%;;&5========5^/===4/{@@@@@@@@@@@@#;&%]1';$3.~^*45~;2.& (+@@#",
"~|- +#&4=========__5:__]{@@@@@@@@@@@#$]1^.((&$]/5)===-#;>@#;>@@@",
"$(&;>#~==========<*5:_](&>@@@@@@@@#;2 /=!@#;>,^=====/{#>@@@@@#;>",
"#+>@@#&1=====54=1_!4[<_ &>@@@@@@@@#2&$-'.@@@@#-4==_-]+@@@@@@@,-{",
"@@@@@@>]/[==5'|- ^*/!_';>@@@@@@@@@@#>@@@@@@@@#;-==_$(+@@@@@@@,~-",
"@@@@@#%*====({-%+!=*(&$@@@@@@@@@@@@@@@@@@@@@@@@;4==_]+@@@@@#>#;$",
"@@@@@>])===/-(<!_1=:'>@@@@@@@@@@@@@@@@@@@@@@@@@;[====|@@@@#$-%+;",
"@@@#>>][===*'])=[:==*%>@@@@@@@@@@@@@@@@@@@@@@@@>/====/@@@#2%]/_&",
"#>@#&$^7===]']:=1===5~>@@@@@@@@@@@@@@@@@@@@@@@#$_====*>@@#2{(__+",
"#{33-~'/===/1]'~%*==/_>@@@@@@@@@@@@@@@@@@@@@@@#3!====]+@@@#;2%|3",
"2~)=//<7=====_>#;;.']<+@@@@@@@@@@@@@@@@@@@@@@@,')===5(+#>@@@#%'_",
"-]====)!=====-@#;;;2%(+@@@#>@@@@@@@@@@@@@@@@@#&5====/-%;;;>@,3%/",
"4=====4(!)==/+@#+]~$ .&>@#2&;+>@@@@@@@@@@@@#>,^=====/%|%2.&;$( =",
"======:_5)==/{@#&<!'| &>@#2{(!-@@@@@@@@@@@@#.%5======~'~2..{~^/=",
"===========[_{@@#.']'|{@@@#3!:|@@@@@@@@@@@@#%_=======]3$#..{-'==",
"===========/%>@@@#;.--{@@@#%'^$@@@@@@@@@@@@#$'=======<&;2..{~_==",
"============(+>@@@@#;;>@#;2&;>@@@@@@@@@@@@#;$'=======4''|--(!===",
"====[:======[!~>@@@@@@@@,~'~>@#>@@@@@#;$@@#2%_==========*'''!===",
"====!_:=======)_$@#;+>@#$(<_&;$%>@@@@#36'$@#%_==========5|--|:==",
"====5)==========}&{__{#.%$'].{~|%>@@@# 5=/&3(<=========/~+;23_//",
"=================<1==_.^_-_].%''_'>@@#$!==<!^/========_{@@#;$(<*",
"================/5)==:_![:=* %'^*<+@@@#.)=1](<========4^+;2+#3]'",
"===============*(_*/<!__*[=*|(*//_%>@@@#{]'|~_==========7]|%$(].",
"===============_{---3.-(_!5|~_===:'>@@@@#2%']_============:](*5|",
"==============5~;;;2+,~]1_].%_===)|@@@@@@#;.(3:============]_==:",
"=============='>@@#$3%*4[1](_1==1^$@@@@@@@@#>,~_===========</===",
"=============*-@@@#+_/==5[!!)=[!(+@@@@@@@@@@@#.3*===============",
"====:!_]|_!__^$@@@#3[===*44===/%;>@@@@@@@@@@@#;; )==============",
"==!(+;;>#;;$-{@@@#&*==========!>@@@@@@@@@@@@@@@@>_======5=======",
"==]3$@@@@@@#;>@@@#-5==========-@@@@@@@@@@@@@@@@@#+_54==/*[====']",
"==/<_>@@@@@@@@@@@#%]:=======)_>@@@@@@@@@@@@@@@@@@#&:=*[[====== {",
"==/5/%>@@@#>@@@#;2. /======:'>@@@@@@@@@@@@@@@#$~&+.===*====)=4(.",
"==[<!(+@@@#+@@@, .{(}=====5/{@@@@@@@@@@@@@@@@>_=)_&)======5^** &"};
