/* XPM */
static char *dummy[]={
"64 64 2 1",
"# c #000000",
". c #ffffff",
"................................................................",
"................................................................",
"................................................................",
"................................................................",
"................................................................",
"................................................................",
"................................................................",
"................................................................",
"..........................############..........................",
"..........................#..........###........................",
".........................##.....................................",
".........................#......................................",
".........................#......................................",
"........................##......................................",
"........................#.......................................",
"........................#.......................................",
"........................#.......................................",
"........................#.......................................",
"........................#.......................................",
"........................#.......................................",
"........................#.......................................",
"........................#.......................................",
"........................##......................................",
".........................#......................................",
".........................#......................................",
".........................##.....................................",
"..........................#.....................................",
"..........................###...................................",
"............................##..................................",
".............................###................................",
"...............................###..............................",
".................................###............................",
"...................................##...........................",
"....................................###.........................",
"......................................##........................",
".......................................#........................",
".......................................##.......................",
"........................................#.......................",
"........................................#.......................",
"........................................#.......................",
"........................................#.......................",
"........................................#.......................",
".......................................##.......................",
".......................................#........................",
"......................................##........................",
"................#.....................#.........................",
"................##...................#..........................",
".................##.................##..........................",
"..................##..............###...........................",
"...................################.............................",
"................................................................",
"................................................................",
"................................................................",
"................................................................",
"................................................................",
"................................................................",
"................................................................",
"................................................................",
"................................................................",
"................................................................",
"................................................................",
"................................................................",
"................................................................",
"................................................................"};
