/* XPM */
static char * backrooms_east_xpm[] = {
"64 64 33 1",
" 	c #928A4D",
".	c #938B4F",
"+	c #968E51",
"@	c #9B9356",
"#	c #A0995C",
"$	c #A29A5E",
"%	c #9D9559",
"&	c #958E51",
"*	c #9B9457",
"=	c #A1995D",
"-	c #9A9255",
";	c #978F52",
">	c #958D50",
",	c #978F53",
"'	c #9A9256",
")	c #9E965A",
"!	c #999155",
"~	c #999154",
"{	c #9F985C",
"]	c #9F975B",
"^	c #A0985C",
"/	c #9B9357",
"(	c #948C50",
"_	c #9C9558",
":	c #989054",
"<	c #968E52",
"[	c #9C9458",
"}	c #989053",
"|	c #9E975A",
"1	c #9F985B",
"2	c #A19A5D",
"3	c #9D9659",
"4	c #9C9457",
"   ..    .+@#$%&.+*=#%*-;>&,')#%!~~{$$$]^=/(        ..    &!;;_#",
".>. ..   .>&,!!> >-_@:,:::*^$$$$^$$$$$$#)%<              .+,><)#",
".+;:[/>      .>. .>>>>>;*{$$$$$$$$$$$$$$_->.>.       .>. >::>&*)",
"</]$$$%(              .!$$$$$$$$$$$$$$$$!&..+>      .}*~.&!;..&!",
"=$$$$$$%>             .!$$=$$$$$$$$$$$$%>   ..  .&( >@^%}!->   (",
"$$$$$$$$'.            .;_])$$$$$$$$^]%!(        >:;..}___]%~(   ",
"$$$$$$$#!.            .>}_^$$$$$$$'};.          .>>. >:}!%_-&   ",
"$$$$$^/,(               ,]$$$$$$$%>>>             ...;;..&&>.   ",
"$$=]',(                 ,]$$$$$$$]}>.            (!~+;(         ",
",<,<.                   <)$$=$$$$$@+.           .!={!> .>.      ",
"                       .~]$$#$$$$$_:+.          &%$=~>>}*!(     ",
"                       >@$$$$$$$$$=_-;.        ('#$^};-)$=,.>.  ",
" .>.                   .}$$$$$$$$$$$$%;.       ,^$$$_*_]$^<>,>  ",
",~-}.                   .[$$$$$$$$$$$$@>       <]$$$$^_@_!.>+.  ",
"#=#]!(              .>.  >!:!$$$$$$$$$);...    .!$$$$${@!& ..   ",
"$$$$#!<<.           &:>     .~]$$$$$$$)}...   .>~^$$$$$%*}.     ",
"$$$$$^)_&          (/_;>.    .>,*$$$$|~&     .+:)$$$$$%*%*&     ",
"$$$$$$#%}.         :$$_-&        *$$$%>.    .}*]$$$$$];&,~&     ",
"]$$$$%/_*}.        !$$#_&      ..,$$$$,  .. ,{$$$$$$$)&  .>.  .>",
";%$$]&&@*}.        <]#)!.      .>;1$$$|,<;+>%$$$$$$$$/(   ..  &!",
":-)^*>.;;.         >-@!&        .+@$$$${_@;>|$$$$$$$]}&&.     &!",
"-_##%}...          >!}>>>.       &_$$$$$=#!>%$$$$$$=-,!!>     .>",
"!)$=]*&           .}@}..>.       &_$$$$#$$)!_$$$]]^_;+:;.       ",
">!)_@~( .&(       >@*;.          .}$$$$=$$^@_$$=!<<&.>,>       .",
">;!;>.  >!<       >**>  .>.      .;=$$$$$${!*#=_&    >:}(      >",
"::+.    .;&   .>. >_)}>&')/<.    .~$$$$$$$$_))!&.    >@_<      >",
"__<      .. .>}@}>+_#';!)$$!.     !$$$$$$$$$$#,      ./)<     +!",
"$$|,(       <_#$]-!%$*(&~#=!.  .><)$$$$$$$$$$=<   ..  +:(     ,@",
"$$$^:       ,^$$$*!)$]>>;%^@> .;!*=$$$$$$$#^${&   &;.         .>",
"^==),..(&.  &*%%)_@#$$!:@^$], >:!@^$$$$$$$==$$!>. &;.        .>.",
"!,~;..<%]',(.&(.~)^$$$)_]$$$|<>>>&!%)#$$$$$$$$)!}&>.         .+>",
"< >>  @$$$='>...&_#$$$=]^^$$$_;.  .>>}$$$$$$$$^@@!+>.   ..    ..",
"!<++.>2$$$$):>.>+}'%$$$#)__^#%}.     ./$$$$$$$^@@}+,>   >>      ",
"^%**~[$$$$=*;. &-'/*{$$$)*-~!-&       (!_$$$$$$%*<.+>   ..  .. .",
"$$$$=$$$$$_!;&<!]$$#)$$$/<;>&-<    .&(.}*$$$$$$#%< ..       &;.<",
"$$$$$$$$$$@@_1${=$$$%{$$[(..<)/.  .;@!}%$$$$$$$$_&          (;}[",
"$$$$^$$$$$]#=$$$$$$$_@]$)&  (/'.  .;%#)^$$$$$$${}.           >!*",
"$=#)_$$$$$$$==$$$$$=!&!_~.   ((    >)$$$$$$$$$=!.            .++",
"${_~}{$$$$#]_!:/['!,( .>.          .!$$$$$$=#[,(              &;",
"$$$[~)$$$$]!&. ..                   .,|$$$$$#:                &!",
"$$$$^]$$$%:(                          <$$$$$$,                .}",
"$$$$#]{^/(                            ./$$$$^&..  ..          (!",
"$$$]__@;.                              <%%%#_+;}<&++.     ..  &-",
",~!,~*~.                               <)^])@-@-*)_!>     ..  .>",
" .. <%'.                         >!!::!|$$]*_^]@%=)}.       ..  ",
"    <)_>      ..        ..     (:%=$$$$$$$%!_$$#%*}.       .}!<.",
"    (:,.     .++&(      ..   ..:$$$$$$$$$$)--{$$[>.        >*#)<",
"             .>}]3>       ...++!$$$$$$$$$$$$)%$$4          .!^],",
"              .'$$[(      ..>!@*=$$$$$$$$$$$${#$|(         .;~,(",
"             (~_=$/(        <1$)^$$$$$$$$$=$$$]$]&        .!*&  ",
"     ..     .~%__*&         :$$$$$$$$$$$%'%=$))]!&<(      .[]<  ",
"     ..    ('=$#]%}>&(      ,$$$$$$$$$=_};*_}&!!<[#/(      ,!(  ",
"          .!$$$$$#!>&(     .~$$$$$$$$=%!:-_@> (&!$$$/(     ..   ",
"&.       .;%$$$$$$:        <]$$$$$$$$^__)==*+>>}]$$=[(          ",
"{/(      .}{$$$$$$'&&.  .../$$$$$$$$$#//=$$)!--*=$=_<           ",
"$#<       :$$$$$$$$])',(&;~$$$$$$$$$]%~;_$$#)={_]#%}.           ",
"[!(       !$$$$$$$$$$$^//_{$$$$$$$$$_*-+~$$==$$]%*;.            ",
"&         >3$$$$$$$$$$$$$$$$$$$$$$$$)_~>!=$)^$$$#_;.            ",
"!          (']$$$$$$$#=$$$$$$$$$$$$$=*;;_]*-)$$$$/&.            ",
"|.       .>&!%$$$$=))%)$$$$$$$$$$$$$#~+:**::_=#)_<              ",
"$}.     (}!*#$$$$$$%~<~_=$$$$$$$$$$^'(.>;;+:*)!>>.              ",
"$@+.  .&/==$$$$$$$$$: .}#$$$$$$$$$$^,   ..>:-@<.>.              ",
"$-+..<!)$$$$$$$$$$$$)( &%^)@@^$$$$$)~.   .++>>..>.              ",
"_:+>;_=$$$$$$$$$$$$$#< >;&+::*$$$$[<;> .&~@<                    "};
