/* XPM */
static char * backrooms_south_xpm[] = {
"64 64 40 1",
" 	c #C8BD65",
".	c #C8BD66",
"+	c #CABF68",
"@	c #CDC370",
"#	c #CEC471",
"$	c #CAC06A",
"%	c #C9BE67",
"&	c #CBC06B",
"*	c #C9BE68",
"=	c #CDC26F",
"-	c #D2C879",
";	c #D2C878",
">	c #CABF6A",
",	c #CDC36F",
"'	c #CFC573",
")	c #CCC16D",
"!	c #CDC26E",
"~	c #CEC472",
"{	c #CABF69",
"]	c #D1C777",
"^	c #D0C675",
"/	c #CEC370",
"(	c #D1C776",
"_	c #D1C676",
":	c #CCC26E",
"<	c #CFC574",
"[	c #D0C676",
"}	c #D0C574",
"|	c #C8BE66",
"1	c #CEC371",
"2	c #CBC16C",
"3	c #D1C878",
"4	c #C9BE66",
"5	c #D1C778",
"6	c #C9BF68",
"7	c #CFC473",
"8	c #CBC06C",
"9	c #CFC472",
"0	c #CCC16C",
"a	c #CCC26D",
"  ..     +@#$      %$&**=---;&>,')          *!~={$]---^/!,(-----",
"         $_-:       $<-------[=^-}*         .&@,!@-----^'^]-<{)]",
"         |=]#*      |@-------]@--~.          {@'#@^--------]: {1",
"* **    *21}:.       >2$$}--<:@---]])        +@]]@);------(&% +2",
"~2)$  *:^--;)        ..  2['${:3----}*       +#--'&<------'+$*.4",
"=22{  25---^{            |6*..{^----@.      *!^;^1&#------])=!* ",
"&4#-@ ~----<+           *7-'2,~1[[:{%       .8,868=(------~%$$. ",
"{ '--]-----:.           :---[^]#)){      *$* |%.*/_------~% ..  ",
"+ #-------~%            %'-----'&4.      .4.    $'-----;!%      ",
". ,------[&              2<;---^{               :-----5&|       ",
"**'-----^&|              |25---~.**             <--;--1+        ",
"~'-------@*              *)^---9 ..             [-----^$        ",
"----------(&             .{&@--]> *$**::*     *2------'|        ",
"-----------<*             ..%:~8| +)))#@+     1-------3>        ",
"-----------[+             ** |%.  .%%):%.     }--------]>       ",
"--------;--=.          ** ..         %%      *]---------<>      ",
"-------^&{{%           .2#:$*                .^----------^>     ",
"------~*.              )----'2*             *,------------:     ",
"-----~%               *}------:          *22)^------------]>    ",
"----~>                +<------}> **      .)77--------^@^---2    ",
"----).                .@---<~<1&:'~>     *=<]--------'{*@]~{    ",
"----9*                 &][8$$*%4=--;&    .$)@5---[----: %6%.    ",
"----~+          >,&    |{6...   >;--;:**$2!)2,9':*{<--)         ",
"----~&*         &^9*           *+1---]@~~1:2822$|  %$2{      ** ",
"----(&.         {[-_2**$*      +@--------31)88)!>    ..   )]-3'>",
"-----;#*        .@---2+8+      $(----------18)7'&         &;---~",
"-------^2*       =---<@&.      {[----------^{{)&|         |=---~",
"]-------[2      *@----;:       +[-----------2.4.           %2#:*",
"}[#';]<[59>     :------'*      +[------------'#,2*          .%| ",
"<~{%{6%&:=&>2*  1------@.      2-----------------^>             ",
"=2.    .4%|:7$  %~----^>      *<-----[------------;&            ",
"%|     *$* &={  >}----:.      .^-----]---^---------~        &:* ",
"      *&8+ |%.  |@----)       >;-------------------<*       %%. ",
">**** .44.       >^---9*    *:;------5'~]----------<$           ",
"<~@!)*           .@---^$    $'-------78%@----------]&           ",
"---5=.            =-----#> *=<-------^/2:<3---------:          *",
"----[*            &------]&+:~_------=2:{*{^-------[&         *~",
"-----,           *=-------[!:=1~[----[),2  #-------0|**       $]",
"-----_*          .8^--------}&8:&)<--1&#=* ,-------: +)>     *=-",
"------2           &1----5]5]7)&{..%82%{=:+ =--------,!}~>*$:,~--",
"}-----<>          |)----5]})*%{+   .. .{{+,---------^'7=&+4$)~--",
"=----]1{           )---<'^1{  ++      *!~^-------]-]}~=:~@*.4*:^",
"-_^5]=$+           @---~@^^~#:&&*     2_------){{&,}]'1}-^$   &@",
"-[@[--(!*         >^---,$7]]^'~<:  ** &_----[:|  .{<-----[& *$=#",
"-}8@----~*        {,''~&.2##7^]-}>*)~[^}<1){*|    .@---:{{| .48@",
"--:1----])$2:>    .%%%$&${%8@7#~7=!:^--]@7@*       %!@{|      {$",
"-]#)}---5,1]-;)       +88+ {:2%%*=_}]---';-:        ||        ..",
"^&*{~---[$$^--)       .40@>.{{   %{{1------'*                   ",
"1+*@----7&!^[~&   *:]-#$a@)*++      %^-----]+                   ",
"%.+=-----<']<8|   $^---1222&&+      *<-----5$                   ",
"  .{]-----]5^2    {7----1)11&.      .@---^[#{                   ",
"  >@-------5})    +=<----]]'&        =---2&2&**22*              ",
" &]--------^1&    +2)'-----~{        1---@.{8)'-]2 *222>**      ",
"[----------:${*$2#^<0$1]-[@$.     ** 1----:&1]---@ :]}:{..      ",
"-----------)..:]----!.%6{6%.     &(--------------^2'-[&.        ",
"-----------!  >~~==!>           *1---------------<1<][2**       ",
"------------) .%%444.           $~5--------[^9='<1=^----'*      ",
"------------->                 *=^]--------<$%4%2_-------$   *$$",
"-,@----------&                >@5----------]!:::=5------'{   .&&",
"'&%)--------'{              *:]-----------------'#]---~:$.    ||",
"@/2)5--;--<)*.              2_-----------5];-----#)[--^)+       ",
":^][5--]51%.                &_---------^=,7^~#]--'815[,{.       ",
"[---5^_--[>                 &7[-------]2&1^^@21---0$:){.        ",
"_'<<)6@---@               *2/~~5-------^]----<^;--!+{4.         "};
