/* XPM */
static char * backrooms_west_xpm[] = {
"64 64 44 1",
" 	c #A29A5E",
".	c #9E965A",
"+	c #9F975B",
"@	c #A1995D",
"#	c #9B9357",
"$	c #9A9256",
"%	c #968E52",
"&	c #928A4D",
"*	c #938B4E",
"=	c #978F53",
"-	c #999155",
";	c #9D9559",
">	c #9B9356",
",	c #958D51",
"'	c #9A9255",
")	c #9F985B",
"!	c #A19A5E",
"~	c #989053",
"{	c #948C50",
"]	c #978F52",
"^	c #9C9458",
"/	c #9B9457",
"(	c #989054",
"_	c #999255",
":	c #9D9659",
"<	c #948C4F",
"[	c #A0995D",
"}	c #9A9356",
"|	c #938C4F",
"1	c #A0985C",
"2	c #999154",
"3	c #9C9457",
"4	c #9C9558",
"5	c #958D50",
"6	c #979053",
"7	c #989154",
"8	c #958E51",
"9	c #9E975A",
"0	c #A19A5D",
"a	c #A0995C",
"b	c #9F985C",
"c	c #968F52",
"d	c #968E51",
"e	c #938B4F",
" .+@   #$%&*&&&&&&&&&&&&&&&&&&&&**=-.;>+       +,&&&&&&&&&&&&*' ",
");;;!  .$~{,&&&&&&&&&&&&&&&&&&&*,*]'^/~#+      ^*&&&&&&&&&&&&*(.",
"^_(#   +#:'&&&&&&&&&&&&&&&&&&<*&&&&&<%~#+    [:^]*&&&&&&&&&&&*=~",
"@}.    (~:#*&&&&&&&&&&&&&&&&|(,&&&&*%*(^1    @^#>]&&&&&&&&&&&*~_",
"      @<,$_]*&&&&&&&&&&&&&&&&&&&&&&*,*2)       )+3{*&&&&&&&&&*%=",
"       4#2-}%&&&&&&&&&&&&&&&&&&&&&&&&<~+          ;%&&&&&&&&&&&<",
"         +.^%&&&&&&&&&&&&&&&&&&&&&&*<%5^   @@     16&&&&&&&****,",
"         1;$%&&&&&&&&&&&&&&&&&&&&*<=~~~#[   ++@    ^**&&&&*(--'^",
"         :##6&&&&&&&&&&&&&&&&&&&<27($#(]-}   ++   1^%,&&&&<^ @@)",
"         +;);{|&&&&&&&&&&&&&&&&*~.+#$1+8*,+   @@1:;(&&&&&&<^@9.>",
"          @  )/*&&&&&&&&&&&&&&&&<; 0    '-4   @[;>$]**&&&&|(,&&&",
"          :    %&&&&&&&&&&&&&&&&&50      aa    @#$$$7]&&&&&&&&&&",
"        +(~a   6&&&&&&&&&&&&&&&&&{+             9(~#:'*&&&&&&&&&",
"      ;;(&8@   .|&&&&&&&&&&&&&&&&5;              .-#:^%&&&&&&&&&",
"     ;~-%*-     $&&&&&&&&&&&&&&&*(;      ;:):+    :}$-%&&&&&&&&&",
"  1$#;%%,*]#[   9*&&&&&&&&&&&&&*<2+    +-=]-$^    ^(%=%*&&&&&&&&",
"  [7##&&&&<(#^  [~*&&&&&&&&&&&*%%(;1   -=%&<~'    ]&*%=,&&&&&&&&",
"   #-(&&&*%2.9   ;%&&&&&&&&&&&&&*%%'  +~~]*=}}+   }|&*%&&&&&&&&&",
"   #*,&&&&*21    ^,&&&&&&&&&&&&&**<(^^^$>-&|(%(@  @}<5%&55&&&&&&",
"   '<*&&&&*-     '<*<*&&&&&&&*&*==%%&*%]-~&&&&{+   @;^(]1+&&&&&&",
"   :>]&&&&*]#@   +#-}%&&&&&&8(|*%,*,&&&&&&&&&&{.       1 1**&&&&",
"   b;-*&&&**=^     +;%&&&&&,+@$*&&&&&&&&&&&&&*,#+      0;3~%&&&&",
"    ^-,&&*8*,^1     []&&&&*(. +%&&&&&&&&&&&&*(;44    1.-=(-,&&&&",
"    1]&&&&<(^1!      }<<*<,2';>,&&&&&&&&&&&&*'  .;+0.7=~~$%&&&*<",
")    '*&**=-[        1^^}.1+;,&&&&&&&&&&&&&&*(11/%*=,*]_2#%&*<2^",
"@    ;%*8<24         @     @>&&&&&&&&&&&&&&&&*8<=,*,&&*~#+%<(-; ",
"# 1.:;]**~#+        .+      %&&&&&&&&&&&&&&&*<,~,&*&**52'^=~>.@ ",
"*~;^#;$]<%~)        9^@    @]&&&&&&&&&&&&&*5~/.'*<=5(-;)9$%%~'^/",
"&*%]$}$-%&8@         #4@[::;(&&&&&&&&&&&&<-^_$./==#;;1   -&<,&*%",
"&&&*=$=%,*-          ..+1##$%*&&&&&&&&&*<2) .&*%,<^     0(*,&&&&",
"&&&&|(,&&*(@     @  1:.@@.;-=,&&&&&&&&*%=6;1'&&&&*'   +^^%&&&&&&",
"&&&&&&&&&&</.9   ;^}/#;[):^%,&&&&&&&&&&*,&&&&&&&&*]#  $5$%&&&&&&",
"&&&&&&&&&&8;    /=~]5;@.}-~&&&&&&&&&&&&&&&&&&&&&&&&5  @'}%&&&&&&",
"&&&&&&&&&<^0   )~2^/$+ 1'*&&&&&&&&&&&&&&&&&&&&&&&&&{[   +(&&&&&<",
"&&&&&&&&*<^0   )>^0 @) @:]*&&&&&&&&&&&&&&&&&&&&&&&&{1    +&&&&<~",
"&&&&&*&*%5#1   ;>^@ 1   1$,&&&&&&&&&&&&&&&&&&&&&&&&5.    1*&&*%~",
"&&&&*c{,~7#1   ;4^;;#   b$*&&&&&&&&&&&&&&&&&&&&&&&*(4    ^%&&&*%",
"&&&*<2)1;4^+     ;,&<]';:+%&&&&&&&&&&&&&&&&&&&&&&&*-1   1$%&*&&&",
"5{5=~}     [     >&*8*<%(/%&&&&*&&&&&&&&&&&&&&&&&&5.    1_]<8**&",
" 1^$;1    !2;   )%&&<-~<~=%*&&<%*<*&&&&&&&&&&&&&**$     )~$]<=%*",
"          1^+1  )]&*();-$~=,&*%=2#6&&&&&&&&&&&&*%89     [7>$%===",
"           a   @+(&&|';;>$]&&&*(4[#&&&&&&&&&&&&*~^       #$~*==~",
"               1-,&&&*]-$$(&&&*(;.~&&&&&&&&&&&&*]^       ;%*<===",
"               [~<*&&&&*%%,&&*<=%,&&&&&&&&&&&&&*<$       1227~~2",
"+@              +#~*&&&&&&&&*(2~*&&*&&&&&&*|&&*%~;        a1.>>#",
".1     @:^)       +2|&&*<*&&5#.;%*<]*&&&&*($d|&*~;          1}$$",
"        +1          #<5'#]&5~~;^==7$]*&&&*2) /<,2;          ;(%%",
"                     ^; @},#}8'}=~>##(*&&*~+  4:#)        ;(&&&<",
"                     @   1#4@) :~~>#++%&&&*-  1;>+        +(<*<%",
"                   )>.[ 1):.1  )$2^;+;]*&&&|$+^$7;         04-7]",
"                   ;~$$$$-$$^+ ^$^  0+},&&&&*%~##;            +>",
"@                  /%%%%%*('.^^=~;    #&&&&&&*]'^#             ;",
"'                 ^,&&&<=8;1@.>('.  a.~&&&&&&&&*,<}9           ^",
"}                )-&&&*=/;  @@:40 @)/%&&&&&&&&&&&*=7+           ",
"+        0)+910+:;~&&&&d)   +@)[  1-%,&&&&&&&&&&&*%]#           ",
"^     )^(%%,*%%]$(&&&&5;    a     +,&&&&&&&&&&&&&&&&{.          ",
"]4    >=|&&&&&&*%,&&&*-@          >&&&&&&&&&&&&&&&&&*()@   b41  ",
"*'    .^$*&&&&&&&&&&&*(:0        b,&&&&&&&&&&&&&&&&&&*~)@+ )    ",
"*~.   @@)]*&&&&*&&&&*<=2)      [^,&&&&&&&&&&&&&&&&e5<<d  1+     ",
"&<#  0+9+$%&&&*%&&&*~==-+     @1(&&&&&&&&&&&&&&&&*}0.#(   @    :",
"&*~+   +4#]&&&*,&&&<-=2#^@    11]&&&&&&&&&&&&&&&&{+  +]       /]",
"&&<;     a(&&&&&&&&<~~#:#}      '&&&&&&&&&&&&&&&&*(   !      +]&",
"&&<;     @,&&&&&&&*]_~-[        ^&&&&&&&&&&&&&&&&&,a        4:-&",
"&&<>+    ;&&&&&&&&&<-;b         #&&&&&&&&&&&&&&&&*21       1@;(&"};
